X: 1546
T: Angels From The Ashes
R: waltz
M: 3/4
K: Dmajor
D2|F(A A4)|(A4 A)F|E(D D4)|D4 EF|(E4 E)D|B,4 G,2|(A,6|A,6)|
B,2 D4|(D4 D)E|(F4 F)E|F4 D2|(G4 G)F|(A4 A)F|(E6|E4) D2|
F2 A4|(A4 A)F|E2 D4|D4 EF|(E4 E)D|B,4 G,2|(A,6|A,6)|
B,2 D4|D4 EF|E4 D2|(A4 A)F|(G4 G)F|(E4 E)F|(D6|D4) FG|
F2 A4|(A4 A)F|E2 D4|D4 F2|(G4 G)B,|D4 G,2|(A,6|A,4) FG|
F2 A4|(A4 A)F|E4 D2|E4 F2|(G4 G)F|(A4 A)F|(E6|E2) F2 G2|
F2 A4|(A4 A)F|E2 D4|D4 EF|(G4 G)B,|D4 G,2|(A,6|A,6)|
B,2 D4|D4 EF|E4 D2|(A4 A)F|(G4 G)F|E4 F2|(D6|D4)||

